Icons/com_onelouder_baconreader.svg

<svg viewBox="0 0 48 48" xmlns:xlink="http://www.w3.org/1999/xlink">
 <defs>
  <linearGradient id="0">
   <stop stop-opacity="0"/>
   <stop offset="1"/>
  </linearGradient>
  <linearGradient xlink:href="#0" id="1" gradientUnits="userSpaceOnUse" gradientTransform="translate(4e-7,-48)" y1="47" x2="0" y2="1"/>
  <clipPath id="2">
   <g transform="translate(0,-1004.3622)">
    <rect rx="4" y="1005.36" x="1" height="46" width="46" fill="#1890d0"/>
   </g>
  </clipPath>
  <clipPath id="3">
   <g transform="translate(0,-1004.3622)">
    <rect rx="4" y="1005.36" x="1" height="46" width="46" fill="#1890d0"/>
   </g>
  </clipPath>
 </defs>
 <g>
  <g transform="translate(0,-1004.3622)">
   <path d="m 5,1006.3622 c -2.216,0 -4,1.784 -4,4 l 0,37.25 c 0,2.216 1.784,4 4,4 l 38,0 c 2.216,0 4,-1.784 4,-4 l 0,-37.25 c 0,-2.216 -1.784,-4 -4,-4 l -38,0 z m -4,41.5 0,0.5 c 0,2.216 1.784,4 4,4 l 38,0 c 2.216,0 4,-1.784 4,-4 l 0,-0.5 c 0,2.216 -1.784,4 -4,4 l -38,0 c -2.216,0 -4,-1.784 -4,-4 z" opacity="0.02"/>
   <path d="m 1,1047.6122 0,0.25 c 0,2.216 1.784,4 4,4 l 38,0 c 2.216,0 4,-1.784 4,-4 l 0,-0.25 c 0,2.216 -1.784,4 -4,4 l -38,0 c -2.216,0 -4,-1.784 -4,-4 z" opacity="0.05"/>
   <rect width="46" height="46" x="1" y="1005.61" rx="4" opacity="0.1"/>
  </g>
 </g>
 <g>
  <g transform="translate(0,-1004.3622)">
   <rect rx="4" y="1005.36" x="1" height="46" width="46" fill="#7e8da8"/>
  </g>
 </g>
 <g>
  <rect transform="scale(1,-1)" width="46" height="46" x="1" y="-46.998" rx="4" opacity="0.1" fill="url(#1)"/>
 </g>
 <g>
  <g clip-path="url(#2)">
   <g opacity="0.1">
    <g>
     <path d="M 29.96875 35.351562 C 29.003906 34.316406 27.664062 33.457031 25.648438 32.582031 C 22.8125 31.351562 21.664062 30.597656 18.664062 28 C 16.296875 25.953125 14.476562 24.710938 12.800781 23.996094 C 12.425781 23.835938 12.070312 23.660156 12.011719 23.609375 C 11.851562 23.46875 13.5625 20.394531 13.800781 20.394531 C 14.203125 20.394531 15.445312 20.789062 16.078125 21.117188 C 17.226562 21.71875 18.070312 22.363281 19.375 23.640625 C 21.539062 25.765625 22.710938 26.582031 24.960938 27.53125 C 29.054688 29.25 30.320312 29.984375 32.875 32.109375 L 33.183594 32.363281 L 32.703125 33.117188 C 32.328125 33.703125 30.640625 36.003906 30.585938 36 C 30.582031 36 30.304688 35.707031 29.96875 35.351562 Z M 32.6875 28.121094 C 31.601562 26.953125 30.289062 26.164062 27.164062 24.785156 C 23.875 23.335938 23.550781 23.128906 20.207031 20.375 C 18.980469 19.367188 17.472656 18.199219 16.855469 17.78125 C 15.707031 17.003906 13.261719 15.707031 12.648438 15.550781 C 12.457031 15.503906 12.304688 15.421875 12.304688 15.367188 C 12.304688 15.3125 12.738281 14.523438 13.269531 13.609375 C 14.351562 11.75 14.183594 11.851562 15.585938 12.210938 C 17.140625 12.609375 18.847656 13.695312 20.730469 15.488281 C 23.199219 17.839844 24.34375 18.570312 27.730469 19.941406 C 30.34375 21.003906 31.605469 21.613281 32.976562 22.472656 C 34.09375 23.171875 36 24.664062 36 24.835938 C 36 25.132812 33.480469 28.621094 33.25 28.640625 C 33.214844 28.640625 32.960938 28.410156 32.6875 28.121094 Z M 32.6875 28.121094 "/>
    </g>
   </g>
  </g>
 </g>
 <g>
  <g clip-path="url(#3)">
   <g transform="translate(0,-1)">
    <g>
     <path d="M 29.96875 35.351562 C 29.003906 34.316406 27.664062 33.457031 25.648438 32.582031 C 22.8125 31.351562 21.664062 30.597656 18.664062 28 C 16.296875 25.953125 14.476562 24.710938 12.800781 23.996094 C 12.425781 23.835938 12.070312 23.660156 12.011719 23.609375 C 11.851562 23.46875 13.5625 20.394531 13.800781 20.394531 C 14.203125 20.394531 15.445312 20.789062 16.078125 21.117188 C 17.226562 21.71875 18.070312 22.363281 19.375 23.640625 C 21.539062 25.765625 22.710938 26.582031 24.960938 27.53125 C 29.054688 29.25 30.320312 29.984375 32.875 32.109375 L 33.183594 32.363281 L 32.703125 33.117188 C 32.328125 33.703125 30.640625 36.003906 30.585938 36 C 30.582031 36 30.304688 35.707031 29.96875 35.351562 Z M 32.6875 28.121094 C 31.601562 26.953125 30.289062 26.164062 27.164062 24.785156 C 23.875 23.335938 23.550781 23.128906 20.207031 20.375 C 18.980469 19.367188 17.472656 18.199219 16.855469 17.78125 C 15.707031 17.003906 13.261719 15.707031 12.648438 15.550781 C 12.457031 15.503906 12.304688 15.421875 12.304688 15.367188 C 12.304688 15.3125 12.738281 14.523438 13.269531 13.609375 C 14.351562 11.75 14.183594 11.851562 15.585938 12.210938 C 17.140625 12.609375 18.847656 13.695312 20.730469 15.488281 C 23.199219 17.839844 24.34375 18.570312 27.730469 19.941406 C 30.34375 21.003906 31.605469 21.613281 32.976562 22.472656 C 34.09375 23.171875 36 24.664062 36 24.835938 C 36 25.132812 33.480469 28.621094 33.25 28.640625 C 33.214844 28.640625 32.960938 28.410156 32.6875 28.121094 Z M 32.6875 28.121094 " fill="#ffffff"/>
    </g>
   </g>
  </g>
 </g>
 <g>
  <g transform="translate(0,-1004.3622)">
   <path d="m 1,1043.3622 0,4 c 0,2.216 1.784,4 4,4 l 38,0 c 2.216,0 4,-1.784 4,-4 l 0,-4 c 0,2.216 -1.784,4 -4,4 l -38,0 c -2.216,0 -4,-1.784 -4,-4 z" opacity="0.1"/>
  </g>
 </g>
</svg>

<svg viewBox="0 0 48 48"><defs><linearGradient id="linearGradient3764" x1="1" x2="47" gradientUnits="userSpaceOnUse" gradientTransform="translate(-48.000001,0.00221467)"><stop stop-color="#7282a0" stop-opacity="1"/><stop offset="1" stop-color="#7e8da8" stop-opacity="1"/></linearGradient><clipPath id="clipPath-864657906"><g transform="translate(0,-1004.3622)"><rect rx="4" y="1005.36" x="1" height="46" width="46" fill="#1890d0"/></g></clipPath><clipPath id="clipPath-887549903"><g transform="translate(0,-1004.3622)"><rect rx="4" y="1005.36" x="1" height="46" width="46" fill="#1890d0"/></g></clipPath></defs><g><path d="m 1 43 l 0 0.25 c 0 2.216 1.784 4 4 4 l 38 0 c 2.216 0 4 -1.784 4 -4 l 0 -0.25 c 0 2.216 -1.784 4 -4 4 l -38 0 c -2.216 0 -4 -1.784 -4 -4 z m 0 0.5 l 0 0.5 c 0 2.216 1.784 4 4 4 l 38 0 c 2.216 0 4 -1.784 4 -4 l 0 -0.5 c 0 2.216 -1.784 4 -4 4 l -38 0 c -2.216 0 -4 -1.784 -4 -4 z" opacity="0.02"/><path d="m 1 43.25 l 0 0.25 c 0 2.216 1.784 4 4 4 l 38 0 c 2.216 0 4 -1.784 4 -4 l 0 -0.25 c 0 2.216 -1.784 4 -4 4 l -38 0 c -2.216 0 -4 -1.784 -4 -4 z" opacity="0.05"/><path d="m 1 43 l 0 0.25 c 0 2.216 1.784 4 4 4 l 38 0 c 2.216 0 4 -1.784 4 -4 l 0 -0.25 c 0 2.216 -1.784 4 -4 4 l -38 0 c -2.216 0 -4 -1.784 -4 -4 z" opacity="0.1"/></g><g><rect width="46" height="46" x="-47" y="1" rx="4" transform="matrix(0,-1,1,0,0,0)" fill="url(#linearGradient3764)" fill-opacity="1"/></g><g><g clip-path="url(#clipPath-864657906)"><g opacity="0.1"><!-- color: #7e8da8 --><g><path d="m 29.969 35.35 c -0.965 -1.035 -2.305 -1.895 -4.32 -2.77 c -2.836 -1.23 -3.984 -1.984 -6.984 -4.582 c -2.367 -2.047 -4.188 -3.289 -5.863 -4 c -0.375 -0.16 -0.73 -0.336 -0.789 -0.387 c -0.16 -0.141 1.551 -3.215 1.789 -3.215 c 0.402 0 1.645 0.395 2.277 0.723 c 1.148 0.602 1.992 1.246 3.297 2.523 c 2.164 2.125 3.336 2.941 5.586 3.891 c 4.094 1.719 5.359 2.453 7.914 4.578 l 0.309 0.254 l -0.48 0.754 c -0.375 0.586 -2.063 2.887 -2.117 2.883 c -0.004 0 -0.281 -0.293 -0.617 -0.648 m 2.719 -7.23 c -1.086 -1.168 -2.398 -1.957 -5.523 -3.336 c -3.289 -1.449 -3.613 -1.656 -6.957 -4.41 c -1.227 -1.01 -2.734 -2.176 -3.352 -2.594 c -1.148 -0.777 -3.594 -2.074 -4.207 -2.23 c -0.191 -0.047 -0.344 -0.129 -0.344 -0.184 c 0 -0.055 0.434 -0.844 0.965 -1.758 c 1.082 -1.859 0.914 -1.758 2.316 -1.398 c 1.555 0.398 3.262 1.484 5.145 3.277 c 2.469 2.352 3.613 3.082 7 4.453 c 2.613 1.063 3.875 1.672 5.246 2.531 c 1.117 0.699 3.02 2.191 3.02 2.363 c 0 0.297 -2.52 3.785 -2.75 3.805 c -0.035 0 -0.289 -0.23 -0.563 -0.52 m 0 0" fill="#000"/></g></g></g></g><g><g clip-path="url(#clipPath-887549903)"><g transform="translate(0,-1)"><!-- color: #7e8da8 --><g><path d="m 29.969 35.35 c -0.965 -1.035 -2.305 -1.895 -4.32 -2.77 c -2.836 -1.23 -3.984 -1.984 -6.984 -4.582 c -2.367 -2.047 -4.188 -3.289 -5.863 -4 c -0.375 -0.16 -0.73 -0.336 -0.789 -0.387 c -0.16 -0.141 1.551 -3.215 1.789 -3.215 c 0.402 0 1.645 0.395 2.277 0.723 c 1.148 0.602 1.992 1.246 3.297 2.523 c 2.164 2.125 3.336 2.941 5.586 3.891 c 4.094 1.719 5.359 2.453 7.914 4.578 l 0.309 0.254 l -0.48 0.754 c -0.375 0.586 -2.063 2.887 -2.117 2.883 c -0.004 0 -0.281 -0.293 -0.617 -0.648 m 2.719 -7.23 c -1.086 -1.168 -2.398 -1.957 -5.523 -3.336 c -3.289 -1.449 -3.613 -1.656 -6.957 -4.41 c -1.227 -1.01 -2.734 -2.176 -3.352 -2.594 c -1.148 -0.777 -3.594 -2.074 -4.207 -2.23 c -0.191 -0.047 -0.344 -0.129 -0.344 -0.184 c 0 -0.055 0.434 -0.844 0.965 -1.758 c 1.082 -1.859 0.914 -1.758 2.316 -1.398 c 1.555 0.398 3.262 1.484 5.145 3.277 c 2.469 2.352 3.613 3.082 7 4.453 c 2.613 1.063 3.875 1.672 5.246 2.531 c 1.117 0.699 3.02 2.191 3.02 2.363 c 0 0.297 -2.52 3.785 -2.75 3.805 c -0.035 0 -0.289 -0.23 -0.563 -0.52 m 0 0" fill="#fff"/></g></g></g></g><g><g transform="translate(0,-1004.3622)"><path d="m 1 1043.36 0 4 c 0 2.216 1.784 4 4 4 l 38 0 c 2.216 0 4 -1.784 4 -4 l 0 -4 c 0 2.216 -1.784 4 -4 4 l -38 0 c -2.216 0 -4 -1.784 -4 -4 z" opacity="0.1"/></g></g></svg>
